dist/assets/images/weather/weather_41.svg

<svg width="86" height="86" viewBox="0 0 86 86" fill="none" xmlns="http://www.w3.org/2000/svg">
<path d="M31.7933 13.3031C36.0698 13.3018 40.2656 14.4673 43.9287 16.6742C47.5919 18.881 50.5834 22.0456 52.5811 25.8268C55.0348 24.3923 57.7864 23.5432 60.6218 23.3456C63.4572 23.1479 66.3 23.6071 68.929 24.6874C71.558 25.7677 73.9023 27.44 75.7796 29.5741C77.6568 31.7082 79.0164 34.2467 79.7526 36.992C80.4887 39.7373 80.5816 42.6154 80.0239 45.4025C79.4663 48.1895 78.2732 50.8103 76.5374 53.061C74.8016 55.3117 72.5699 57.1316 70.0161 58.3792C67.4622 59.6267 64.6549 60.2682 61.8126 60.2537L31.7261 60.3344C25.4893 60.3344 19.5081 57.8568 15.098 53.4468C10.688 49.0367 8.21045 43.0555 8.21045 36.8187C8.21045 30.582 10.688 24.6007 15.098 20.1907C19.5081 15.7806 25.4893 13.3031 31.7261 13.3031H31.7933Z" fill="url(#paint0_linear)"/>
<path d="M79.6811 46.755C82.427 36.9271 76.6858 26.734 66.8579 23.9881C57.0299 21.2423 46.8368 26.9834 44.091 36.8114C41.3451 46.6393 47.0863 56.8324 56.9142 59.5783C66.7422 62.3241 76.9352 56.583 79.6811 46.755Z" fill="url(#paint1_linear)"/>
<path d="M58.4934 54.4219C59.3774 54.4325 60.2215 54.7911 60.8429 55.42C61.4642 56.0488 61.8126 56.8972 61.8125 57.7813V57.7813C61.8125 58.6722 61.4586 59.5267 60.8286 60.1567C60.1986 60.7867 59.3441 61.1406 58.4531 61.1406H30.2344C29.1652 61.1406 28.1399 61.5653 27.3839 62.3214C26.6278 63.0774 26.2031 64.1027 26.2031 65.1719V65.1719C26.2031 66.241 26.6278 67.2664 27.3839 68.0224C28.1399 68.7784 29.1652 69.2031 30.2344 69.2031H56.7734C57.4862 69.2031 58.1698 69.4863 58.6738 69.9903C59.1778 70.4943 59.4609 71.1779 59.4609 71.8906V71.9981C59.4609 72.7109 59.1778 73.3945 58.6738 73.8985C58.1698 74.4025 57.4862 74.6856 56.7734 74.6856H54.4219" stroke="#A5A9AA" stroke-width="3" stroke-miterlimit="10" stroke-linecap="round"/>
<path d="M69.2031 71.8906C69.9159 71.8906 70.5995 71.6075 71.1035 71.1035C71.6075 70.5995 71.8906 69.9159 71.8906 69.2031C71.8906 68.4904 71.6075 67.8068 71.1035 67.3028C70.5995 66.7988 69.9159 66.5156 69.2031 66.5156H63.8281" stroke="#B9C1C6" stroke-width="3" stroke-miterlimit="10" stroke-linecap="round"/>
<defs>
<linearGradient id="paint0_linear" x1="25.8673" y1="62.3365" x2="54.207" y2="25.6387" gradientUnits="userSpaceOnUse">
<stop stop-color="#F2F2F2"/>
<stop offset="1" stop-color="#CFCFCF"/>
</linearGradient>
<linearGradient id="paint1_linear" x1="69.4413" y1="35.2159" x2="48.0244" y2="53.8437" gradientUnits="userSpaceOnUse">
<stop offset="0.02" stop-color="white"/>
<stop offset="1" stop-color="white" stop-opacity="0"/>
</linearGradient>
</defs>
</svg>

<svg width="86" height="86" fill="none" xmlns="http://www.w3.org/2000/svg"><path d="M31.793 13.303a23.502 23.502 0 0120.788 12.524 18.477 18.477 0 119.232 34.427l-30.087.08a23.516 23.516 0 010-47.03h.067z" fill="url(#paint0_linear)"/><path d="M79.681 46.755c2.746-9.828-2.995-20.021-12.823-22.767-9.828-2.746-20.021 2.995-22.767 12.823-2.746 9.828 2.995 20.021 12.823 22.767 9.828 2.746 20.021-2.995 22.767-12.823z" fill="url(#paint1_linear)"/><path d="M58.493 54.422a3.36 3.36 0 013.32 3.36v0a3.36 3.36 0 01-3.36 3.359H30.234a4.03 4.03 0 00-4.03 4.03v0a4.031 4.031 0 004.03 4.032h26.54a2.688 2.688 0 012.687 2.688v.107a2.688 2.688 0 01-2.688 2.688h-2.351" stroke="#A5A9AA" stroke-width="3" stroke-miterlimit="10" stroke-linecap="round"/><path d="M69.203 71.89a2.688 2.688 0 100-5.374h-5.375" stroke="#B9C1C6" stroke-width="3" stroke-miterlimit="10" stroke-linecap="round"/><defs><linearGradient id="paint0_linear" x1="25.867" y1="62.337" x2="54.207" y2="25.639" gradientUnits="userSpaceOnUse"><stop stop-color="#F2F2F2"/><stop offset="1" stop-color="#CFCFCF"/></linearGradient><linearGradient id="paint1_linear" x1="69.441" y1="35.216" x2="48.024" y2="53.844" gradientUnits="userSpaceOnUse"><stop offset=".02" stop-color="#fff"/><stop offset="1" stop-color="#fff" stop-opacity="0"/></linearGradient></defs></svg>
